X:322
T:New Five Cent Piece
C:Adam Steffey
N:Transcribed by Larry Tanner
R:bluegrass
L:1/8
Q:1/4=195
M:4/4
K:D
z6 FE |: "D"D2 fe fg fe | "G"df ed Bc dB | "D"AB AG FG A2 | "A"e2 ef e2 FG | "D"A2 fe fg fe | 
"G"d2 B2 Bc dB | "D"AB AG "A"FD EF |1 D2 DE D2 FE :|2 D2 DE D2 AB |: "D"A[AF] [A2F2] [A2F2] AB | 
A[AF] [A2F2] [A2F2] AB | A2 FF GD FD | "A"E2 EF E2 FG | "D"Ad AF DF AF | "G"GA Bc dc dB | 
|1 "D"AB AG "A"FD EF | D2 B,D D2 AB :|2 "D"AB AG "A"FD EF | D2 B,D D4 | z8 | z8 | 
z8 | 


